tic-tac-toe-client/src/mechanics/assets/strike-vertical.svg

<svg xmlns="http://www.w3.org/2000/svg" width="188.976" height="188.976" viewBox="0 0 5000 5000"
     preserveAspectRatio="xMidYMid" fill-rule="evenodd" stroke-width="28.222"
     stroke-linejoin="round">
  <defs>
    <clipPath id="A">
      <path d="M0 0h5000v5000H0z"/>
    </clipPath>
  </defs>
  <g clip-path="url(#A)">
    <defs>
      <mask id="B">
        <path d="M1786-421h1337v6000H1786V-421z" fill="url(#C)"/>
      </mask>
      <linearGradient id="C" x1="2454" y1="-421" x2="2454" y2="5579" gradientUnits="userSpaceOnUse">
        <stop offset=".5" stop-color="#a6a6a6"/>
      </linearGradient>
    </defs>
    <g mask="url(#B)">
      <path fill="none" stroke="#000" stroke-width="1000"
            d="M2623 5079c-106-194-139-378-174-559-34-163-77-330-93-489-16-145-66-300-64-440 1-126-14-257 1-380 12-101-5-210 19-305 19-72 13-153 17-229 5-76 16-154 0-237-7-34-6-68 2-100 15-62 15-128 34-189 28-97 18-211 35-311 13-80 27-160 36-240 10-88 7-181 20-267 19-108-17-231-24-345-4-63-23-132-27-196-2-49 2-98-2-149-4-59-24-124-19-178 0-42 5-82 7-123 2-62-17-131-23-196l-8-37-4-30"/>
    </g>
  </g>
</svg>

<?xml version="1.0" encoding="UTF-8"?>
<!DOCTYPE svg PUBLIC "-//W3C//DTD SVG 1.1//EN" "http://www.w3.org/Graphics/SVG/1.1/DTD/svg11.dtd">
<svg version="1.2" width="50mm" height="50mm" viewBox="0 0 5000 5000" preserveAspectRatio="xMidYMid" fill-rule="evenodd" stroke-width="28.222" stroke-linejoin="round" xmlns="http://www.w3.org/2000/svg" xmlns:ooo="http://xml.openoffice.org/svg/export" xmlns:xlink="http://www.w3.org/1999/xlink" xmlns:presentation="http://sun.com/xmlns/staroffice/presentation" xmlns:smil="http://www.w3.org/2001/SMIL20/" xmlns:anim="urn:oasis:names:tc:opendocument:xmlns:animation:1.0" xml:space="preserve">
 <defs class="ClipPathGroup">
  <clipPath id="presentation_clip_path" clipPathUnits="userSpaceOnUse">
   <rect x="0" y="0" width="5000" height="5000"/>
  </clipPath>
  <clipPath id="presentation_clip_path_shrink" clipPathUnits="userSpaceOnUse">
   <rect x="5" y="5" width="4990" height="4990"/>
  </clipPath>
 </defs>
 <defs class="TextShapeIndex">
  <g ooo:slide="id1" ooo:id-list="id3"/>
 </defs>
 <defs class="EmbeddedBulletChars">
  <g id="bullet-char-template-57356" transform="scale(0.00048828125,-0.00048828125)">
   <path d="M 580,1141 L 1163,571 580,0 -4,571 580,1141 Z"/>
  </g>
  <g id="bullet-char-template-57354" transform="scale(0.00048828125,-0.00048828125)">
   <path d="M 8,1128 L 1137,1128 1137,0 8,0 8,1128 Z"/>
  </g>
  <g id="bullet-char-template-10146" transform="scale(0.00048828125,-0.00048828125)">
   <path d="M 174,0 L 602,739 174,1481 1456,739 174,0 Z M 1358,739 L 309,1346 659,739 1358,739 Z"/>
  </g>
  <g id="bullet-char-template-10132" transform="scale(0.00048828125,-0.00048828125)">
   <path d="M 2015,739 L 1276,0 717,0 1260,543 174,543 174,936 1260,936 717,1481 1274,1481 2015,739 Z"/>
  </g>
  <g id="bullet-char-template-10007" transform="scale(0.00048828125,-0.00048828125)">
   <path d="M 0,-2 C -7,14 -16,27 -25,37 L 356,567 C 262,823 215,952 215,954 215,979 228,992 255,992 264,992 276,990 289,987 310,991 331,999 354,1012 L 381,999 492,748 772,1049 836,1024 860,1049 C 881,1039 901,1025 922,1006 886,937 835,863 770,784 769,783 710,716 594,584 L 774,223 C 774,196 753,168 711,139 L 727,119 C 717,90 699,76 672,76 641,76 570,178 457,381 L 164,-76 C 142,-110 111,-127 72,-127 30,-127 9,-110 8,-76 1,-67 -2,-52 -2,-32 -2,-23 -1,-13 0,-2 Z"/>
  </g>
  <g id="bullet-char-template-10004" transform="scale(0.00048828125,-0.00048828125)">
   <path d="M 285,-33 C 182,-33 111,30 74,156 52,228 41,333 41,471 41,549 55,616 82,672 116,743 169,778 240,778 293,778 328,747 346,684 L 369,508 C 377,444 397,411 428,410 L 1163,1116 C 1174,1127 1196,1133 1229,1133 1271,1133 1292,1118 1292,1087 L 1292,965 C 1292,929 1282,901 1262,881 L 442,47 C 390,-6 338,-33 285,-33 Z"/>
  </g>
  <g id="bullet-char-template-9679" transform="scale(0.00048828125,-0.00048828125)">
   <path d="M 813,0 C 632,0 489,54 383,161 276,268 223,411 223,592 223,773 276,916 383,1023 489,1130 632,1184 813,1184 992,1184 1136,1130 1245,1023 1353,916 1407,772 1407,592 1407,412 1353,268 1245,161 1136,54 992,0 813,0 Z"/>
  </g>
  <g id="bullet-char-template-8226" transform="scale(0.00048828125,-0.00048828125)">
   <path d="M 346,457 C 273,457 209,483 155,535 101,586 74,649 74,723 74,796 101,859 155,911 209,963 273,989 346,989 419,989 480,963 531,910 582,859 608,796 608,723 608,648 583,586 532,535 482,483 420,457 346,457 Z"/>
  </g>
  <g id="bullet-char-template-8211" transform="scale(0.00048828125,-0.00048828125)">
   <path d="M -4,459 L 1135,459 1135,606 -4,606 -4,459 Z"/>
  </g>
  <g id="bullet-char-template-61548" transform="scale(0.00048828125,-0.00048828125)">
   <path d="M 173,740 C 173,903 231,1043 346,1159 462,1274 601,1332 765,1332 928,1332 1067,1274 1183,1159 1299,1043 1357,903 1357,740 1357,577 1299,437 1183,322 1067,206 928,148 765,148 601,148 462,206 346,322 231,437 173,577 173,740 Z"/>
  </g>
 </defs>
 <g>
  <g id="id2" class="Master_Slide">
   <g id="bg-id2" class="Background"/>
   <g id="bo-id2" class="BackgroundObjects"/>
  </g>
 </g>
 <g class="SlideGroup">
  <g>
   <g id="container-id1">
    <g id="id1" class="Slide" clip-path="url(#presentation_clip_path)">
     <g class="Page">
      <g class="com.sun.star.drawing.OpenBezierShape">
       <g id="id3">
        <rect class="BoundingBox" stroke="none" fill="none" x="1786" y="-422" width="1338" height="6002"/>
        <defs>
         <mask id="mask1">
          <g>
           <defs>
            <linearGradient id="gradient1" x1="2454" y1="-421" x2="2454" y2="5579" gradientUnits="userSpaceOnUse">
             <stop offset="0.5" style="stop-color:rgb(166,166,166)"/>
             <stop offset="0.5" style="stop-color:rgb(166,166,166)"/>
             <stop offset="1" style="stop-color:rgb(166,166,166)"/>
             <stop offset="1" style="stop-color:rgb(166,166,166)"/>
            </linearGradient>
           </defs>
           <path style="fill:url(#gradient1)" d="M 1786,-421 L 3123,-421 3123,5579 1786,5579 1786,-421 Z"/>
          </g>
         </mask>
        </defs>
        <g style="mask:url(#mask1)">
         <path fill="none" stroke="rgb(0,0,0)" stroke-width="1000" stroke-linejoin="round" d="M 2623,5079 C 2517,4885 2484,4701 2449,4520 2415,4357 2372,4190 2356,4031 2340,3886 2290,3731 2292,3591 2293,3465 2278,3334 2293,3211 2305,3110 2288,3001 2312,2906 2331,2834 2325,2753 2329,2677 2334,2601 2345,2523 2329,2440 2322,2406 2323,2372 2331,2340 2346,2278 2346,2212 2365,2151 2393,2054 2383,1940 2400,1840 2413,1760 2427,1680 2436,1600 2446,1512 2443,1419 2456,1333 2475,1225 2439,1102 2432,988 2428,925 2409,856 2405,792 2403,743 2407,694 2403,643 2399,584 2379,519 2384,465 2384,423 2389,383 2391,342 2393,280 2374,211 2368,146 L 2360,109 2356,79"/>
        </g>
       </g>
      </g>
     </g>
    </g>
   </g>
  </g>
 </g>
</svg>
